X: 4
T:Old John Tate
M:C
L:1/8
Q:200
S:from Vivian Williams Workshop in Ellensburg WA
R:Reel
N:from Glen Berry
Z:William C. Dunlap  2001-01-17
K:Am
"Am"e2a2a3g| a2g2 edcA|cdcA "G"BcBG|"Am"AcBG AG E2|
"Am"e2a2a3g| a2g2 edcA|cdcA "G"BcBG|"Am"AGEG A4:|
|:"Am"((3AGFE2) E4|A2 AB cd e2|((3AGFE2) E4|"E"AcBG A2A2|
"Am"((3AGFE2) E4|A2 AB cBcd|e2d2~c2 Ac|"Em"BAGB "Am"A4:|
